X: 25
T:Lady Anne Montgomery
M:4/4
L:1/8
Q:150
C:Traditional
K:D
A2 |FADA FADA |FAdA BAdA |FADF E2 FE |
DB,A,B, D2 A2 |FADA FADA |FAdA BABc |dBAF E2 FE |
DB,A,B, D4 |:f3 f fede |fedB ABde |1f3 f fede |
faaf efde :|2fded BdAg |fgfe d4 ||
%  ABC2Win Version 2.1 24/06/2002
